assets/svg/1F6A7.svg

<svg xmlns="http://www.w3.org/2000/svg" viewBox="0 0 64 64" enable-background="new 0 0 64 64"><g transform="translate(0 12.271)"><path d="m14.622 48.24c0 1.712-1.389 3.102-3.103 3.102h-3.256c-1.71 0-3.099-1.39-3.099-3.102v-37.695c0-1.711 1.389-3.101 3.099-3.101h3.255c1.714 0 3.103 1.389 3.103 3.101v37.695" fill="#888887"/><path d="m12.139 51.18c-1.712 0-3.099-1.387-3.099-3.101v-37.693c0-1.373.892-2.536 2.129-2.945h-2.906c-1.71 0-3.099 1.389-3.099 3.101v37.695c0 1.712 1.389 3.102 3.099 3.102h3.255c.341 0 .67-.058.974-.159h-.353" fill="#757675"/><path d="m58.81 48.24c0 1.712-1.39 3.102-3.104 3.102h-3.255c-1.714 0-3.104-1.39-3.104-3.102v-37.695c0-1.711 1.39-3.101 3.104-3.101h3.255c1.714 0 3.104 1.389 3.104 3.101v37.695" fill="#888887"/><path d="m56.33 51.18c-1.714 0-3.1-1.387-3.1-3.101v-37.693c0-1.373.893-2.536 2.125-2.945h-2.901c-1.714 0-3.104 1.389-3.104 3.101v37.695c0 1.712 1.39 3.102 3.104 3.102h3.255c.342 0 .666-.058.975-.159h-.354" fill="#757675"/><path d="m63.836 23.842c0 2.049-1.664 3.709-3.711 3.709h-56.41c-2.048.0001-3.711-1.66-3.711-3.709v-20.13c0-2.048 1.663-3.711 3.711-3.711h56.41c2.047 0 3.711 1.663 3.711 3.711v20.13" fill="#ffdd15"/><path d="m37.951 13.799c-7.933-.664-15.725-2.199-23.404-4.274-3.532-.951-7.08-1.901-10.587-2.926-1.328-.389-2.655-.808-3.96-1.285v18.528c0 2.049 1.663 3.709 3.711 3.709h56.41c2.047 0 3.711-1.661 3.711-3.709v-11.617c-8.557 1.593-17.262 2.296-25.885 1.574" fill="#e0be23"/><g fill="#243438"><path d="m63.836 20.803v-12.09l-15.426 18.839h9.9z"/><path d="m26.607 27.552h11.06l22.56-27.545c-.037-.003-.07-.007-.106-.007h-10.953l-22.565 27.552"/><path d="M6.738 0 0 8.229 0 20.751 16.995 0z"/><path d="m27.729 0l-22.565 27.552h10.709l22.563-27.552z"/></g></g></svg>

<?xml version="1.0" encoding="UTF-8" standalone="no"?>
<!-- Generator: Adobe Illustrator 16.0.0, SVG Export Plug-In . SVG Version: 6.00 Build 0)  -->

<svg
   xmlns:dc="http://purl.org/dc/elements/1.1/"
   xmlns:cc="http://creativecommons.org/ns#"
   xmlns:rdf="http://www.w3.org/1999/02/22-rdf-syntax-ns#"
   xmlns:svg="http://www.w3.org/2000/svg"
   xmlns="http://www.w3.org/2000/svg"
   xmlns:sodipodi="http://sodipodi.sourceforge.net/DTD/sodipodi-0.dtd"
   xmlns:inkscape="http://www.inkscape.org/namespaces/inkscape"
   version="1.1"
   id="Layer_1"
   x="0px"
   y="0px"
   width="64px"
   height="64px"
   viewBox="0 0 64 64"
   enable-background="new 0 0 64 64"
   xml:space="preserve"
   inkscape:version="0.48.5 r10040"
   sodipodi:docname="1F6A7.svg"
   inkscape:export-filename="D:\TESTINGEMOJI\SVGTEST\1F6A7.png"
   inkscape:export-xdpi="90"
   inkscape:export-ydpi="90"><metadata
   id="metadata6041"><rdf:RDF><cc:Work
       rdf:about=""><dc:format>image/svg+xml</dc:format><dc:type
         rdf:resource="http://purl.org/dc/dcmitype/StillImage" /><dc:title></dc:title></cc:Work></rdf:RDF></metadata><defs
   id="defs6039" /><sodipodi:namedview
   pagecolor="#ffffff"
   bordercolor="#666666"
   borderopacity="1"
   objecttolerance="10"
   gridtolerance="10"
   guidetolerance="10"
   inkscape:pageopacity="0"
   inkscape:pageshadow="2"
   inkscape:window-width="640"
   inkscape:window-height="480"
   id="namedview6037"
   showgrid="false"
   inkscape:zoom="3.6875"
   inkscape:cx="32"
   inkscape:cy="32"
   inkscape:window-x="482"
   inkscape:window-y="339"
   inkscape:window-maximized="0"
   inkscape:current-layer="Layer_1" />
<g
   id="g6013"
   transform="translate(0,12.271186)">
	<path
   d="m 14.622,48.237 c 0,1.712 -1.389,3.102 -3.103,3.102 H 8.263 c -1.71,0 -3.099,-1.39 -3.099,-3.102 V 10.542 c 0,-1.711 1.389,-3.101 3.099,-3.101 h 3.255 c 1.714,0 3.103,1.389 3.103,3.101 v 37.695 z"
   id="path6015"
   inkscape:connector-curvature="0"
   style="fill:#888887" />
	<path
   d="M 12.139,51.18 C 10.427,51.18 9.04,49.793 9.04,48.079 V 10.386 C 9.04,9.013 9.932,7.85 11.169,7.441 H 8.263 c -1.71,0 -3.099,1.389 -3.099,3.101 v 37.695 c 0,1.712 1.389,3.102 3.099,3.102 h 3.255 c 0.341,0 0.67,-0.058 0.974,-0.159 h -0.353 z"
   id="path6017"
   inkscape:connector-curvature="0"
   style="fill:#757675" />
	<path
   d="m 58.81,48.237 c 0,1.712 -1.39,3.102 -3.104,3.102 h -3.255 c -1.714,0 -3.104,-1.39 -3.104,-3.102 V 10.542 c 0,-1.711 1.39,-3.101 3.104,-3.101 h 3.255 c 1.714,0 3.104,1.389 3.104,3.101 v 37.695 z"
   id="path6019"
   inkscape:connector-curvature="0"
   style="fill:#888887" />
	<path
   d="m 56.327,51.18 c -1.714,0 -3.1,-1.387 -3.1,-3.101 V 10.386 c 0,-1.373 0.893,-2.536 2.125,-2.945 h -2.901 c -1.714,0 -3.104,1.389 -3.104,3.101 v 37.695 c 0,1.712 1.39,3.102 3.104,3.102 h 3.255 c 0.342,0 0.666,-0.058 0.975,-0.159 h -0.354 z"
   id="path6021"
   inkscape:connector-curvature="0"
   style="fill:#757675" />
	<path
   d="m 63.836,23.842 c 0,2.049 -1.664,3.709 -3.711,3.709 H 3.711 C 1.663,27.552 0,25.891 0,23.842 V 3.711 C 0,1.663 1.663,0 3.711,0 h 56.414 c 2.047,0 3.711,1.663 3.711,3.711 v 20.131 z"
   id="path6023"
   inkscape:connector-curvature="0"
   style="fill:#ffdd15" />
	<path
   d="M 37.951,13.799 C 30.018,13.135 22.226,11.6 14.547,9.525 11.015,8.574 7.472,7.624 3.96,6.599 2.632,6.21 1.305,5.791 0,5.314 v 18.528 c 0,2.049 1.663,3.709 3.711,3.709 h 56.414 c 2.047,0 3.711,-1.661 3.711,-3.709 V 12.225 c -8.557,1.593 -17.262,2.296 -25.885,1.574 z"
   id="path6025"
   inkscape:connector-curvature="0"
   style="fill:#e0be23" />
	<g
   id="g6027">
		<polygon
   points="63.836,20.803 63.836,8.713 48.407,27.552 58.308,27.552 "
   id="polygon6029"
   style="fill:#243438" />
		<path
   d="M 26.607,27.552 H 37.671 L 60.231,0.007 C 60.194,0.004 60.161,0 60.125,0 H 49.172 L 26.607,27.552 z"
   id="path6031"
   inkscape:connector-curvature="0"
   style="fill:#243438" />
		<polygon
   points="6.738,0 0,8.229 0,20.751 16.995,0 "
   id="polygon6033"
   style="fill:#243438" />
		<polygon
   points="27.729,0 5.164,27.552 15.873,27.552 38.436,0 "
   id="polygon6035"
   style="fill:#243438" />
	</g>
</g>
</svg>
